assets/ai/ai-ideas-repec-square.svg

<svg xmlns="http://www.w3.org/2000/svg" width="100%" height="100%" viewBox="-75.52 -43.52 599.04 599.04"><path d="M 48 32 C 21.5 32 0 53.5 0 80 L 0 432 C 0 458.5 21.5 480 48 480 L 400 480 C 426.5 480 448 458.5 448 432 L 448 80 C 448 53.5 426.5 32 400 32 L 48 32 z M 223.76562 96.003906 C 264.71769 95.70585 304.13263 117.27532 326.25781 153.81836 C 354.01215 199.66061 347.98902 258.39995 311.48828 297.11328 C 307.06636 301.80173 302.38686 306.2574 297.6875 310.67383 C 288.91006 318.92144 283.5149 328.58451 283.23633 340.99805 C 283.04962 349.31386 278.5959 355.13954 270.41211 357.39844 C 269.2533 357.72659 180.88281 381.47461 180.88281 381.47461 C 176.01024 382.78 170.95577 379.85976 169.65039 374.98828 L 169.44922 374.23633 C 168.14383 369.36379 171.06297 364.30927 175.93555 363.00391 C 175.93555 363.00391 252.95293 341.42448 251.64062 342.64453 C 258.66417 340.91363 262.72999 337.31677 264.42773 330.06641 C 268.05728 314.56445 278.13959 303.02207 289.20508 292.30078 C 307.53951 274.53701 319.90015 253.87375 323.22852 227.98633 C 328.21051 189.23436 309.41468 149.17446 274.86328 129.73047 C 237.65296 108.79037 200.32917 110.16991 165.58594 134.9707 C 117.22481 169.49005 110.13765 236.13859 148.88672 281.22461 C 159.68275 293.78655 170.65502 306.1982 182.70312 320.00391 C 214.39803 315.37234 214.39744 315.37211 214.39844 283.13867 C 214.39964 263.10249 214.52181 243.06349 214.3457 223.02734 C 214.28189 215.89551 216.61465 210.3287 224.23438 210.50586 C 231.76074 210.68052 233.95879 216.44009 233.93359 223.43555 C 233.82174 254.33992 233.7543 285.24637 233.95703 316.15039 C 234.00771 323.80764 231.12103 328.04718 223.52539 329.89258 C 208.70893 333.4915 194.08891 337.89662 179.26953 341.48242 C 168.59894 344.06547 167.19514 340.99027 162.81445 331.1543 C 158.4447 321.34241 151.31812 312.14635 143.56641 304.55469 C 110.51544 272.18486 97.457299 233.53173 107.94922 188.59375 C 118.54944 143.19305 147.70009 113.67034 192.41016 100.60742 C 202.78775 97.575311 213.32686 96.079881 223.76562 96.003906 z M 224.16211 170.26562 C 232.21391 170.35233 236.20464 175.11037 236.7793 182.49414 C 236.15395 191.0021 231.34276 195.7972 223.87109 195.67578 C 216.4315 195.55579 211.01665 190.45711 211.19531 182.69336 C 211.3685 175.13891 216.1052 170.17775 224.16211 170.26562 z M 267.04102 378.58984 C 271.02313 378.75455 274.63036 381.47743 275.71289 385.51758 C 277.04636 390.4901 274.06819 395.64811 269.0957 396.98047 L 199.30078 415.68164 C 194.3283 417.01364 189.17025 414.03697 187.83789 409.06445 C 186.50588 404.09201 189.48259 398.93392 194.45508 397.60156 L 264.25 378.90039 C 265.18234 378.65064 266.12207 378.55183 267.04102 378.58984 z"/></svg>

<svg xmlns="http://www.w3.org/2000/svg" width="100%" height="100%" viewBox="-75.52 -43.52 599.04 599.04"><path d="M48 32C21.5 32 0 53.5 0 80v352c0 26.5 21.5 48 48 48h352c26.5 0 48-21.5 48-48V80c0-26.5-21.5-48-48-48H48zm175.766 64.004c40.952-.298 80.367 21.271 102.492 57.814 27.754 45.843 21.731 104.582-14.77 143.295-4.422 4.689-9.101 9.144-13.8 13.56-8.778 8.248-14.173 17.912-14.452 30.325-.186 8.316-4.64 14.142-12.824 16.4-1.159.329-89.53 24.077-89.53 24.077-4.872 1.305-9.926-1.615-11.232-6.487l-.2-.752c-1.306-4.872 1.613-9.927 6.486-11.232 0 0 77.017-21.58 75.705-20.36 7.023-1.73 11.089-5.327 12.787-12.578 3.63-15.502 13.712-27.044 24.777-37.765 18.335-17.764 30.695-38.427 34.024-64.315 4.982-38.752-13.814-78.812-48.366-98.256-37.21-20.94-74.534-19.56-109.277 5.24-48.361 34.52-55.448 101.169-16.7 146.255 10.797 12.562 21.769 24.973 33.817 38.779 31.695-4.632 31.694-4.632 31.695-36.865.002-20.037.124-40.076-.052-60.112-.064-7.131 2.269-12.698 9.888-12.521 7.527.175 9.725 5.934 9.7 12.93-.112 30.904-.18 61.81.023 92.714.05 7.658-2.836 11.897-10.432 13.743-14.816 3.599-29.436 8.004-44.255 11.59-10.671 2.582-12.075-.493-16.456-10.329-4.37-9.812-11.496-19.008-19.248-26.6-33.05-32.37-46.109-71.022-35.617-115.96 10.6-45.4 39.751-74.924 84.461-87.987a114.66 114.66 0 0131.356-4.603zm.396 74.262c8.052.086 12.043 4.844 12.617 12.228-.625 8.508-5.436 13.303-12.908 13.182-7.44-.12-12.854-5.219-12.676-12.983.174-7.554 4.91-12.515 12.967-12.427zm42.879 208.324c3.982.165 7.59 2.887 8.672 6.928 1.333 4.972-1.645 10.13-6.617 11.462L199.3 415.682c-4.973 1.332-10.13-1.645-11.463-6.618-1.332-4.972 1.645-10.13 6.617-11.462L264.25 378.9a9.291 9.291 0 012.791-.31z"/></svg>
